icons/svg/microphone-variant-off.svg

﻿<?xml version="1.0" encoding="utf-8"?>
<!DOCTYPE svg PUBLIC "-//W3C//DTD SVG 1.1//EN" "http://www.w3.org/Graphics/SVG/1.1/DTD/svg11.dtd">
<svg xmlns="http://www.w3.org/2000/svg" xmlns:xlink="http://www.w3.org/1999/xlink" version="1.1" baseProfile="full" width="24" height="24" viewBox="0 0 24.00 24.00" enable-background="new 0 0 24.00 24.00" xml:space="preserve">
	<path fill="#000000" fill-opacity="1" stroke-width="0.2" stroke-linejoin="round" d="M 2,5.26848L 3.27711,4L 20,20.7229L 18.7315,22L 15.9917,19.2601C 15.8576,21.348 14.1217,23 12,23C 9.79086,23 8,21.2091 8,19L 8,18L 7,18L 6.16077,9.8176C 5.81524,9.46942 5.5333,9.05804 5.33385,8.60232L 2,5.26848 Z M 9,3C 11.2091,3 13,4.79086 13,7L 8.82269,7L 6.0843,4.26161C 6.81394,3.48502 7.85033,3 9,3 Z M 11.8392,9.8176L 11.8207,9.99803L 9.82269,8L 12.874,8C 12.6944,8.69771 12.3313,9.32175 11.8392,9.8176 Z M 11,18L 10,18L 10,19C 9.99999,20.1046 10.8954,21 12,21C 13.1046,21 14,20.1046 14,19L 14,17.2685L 11.3471,14.6156L 11,18 Z M 18,10L 20,10L 19,11L 20,12L 18,12C 16.8954,12 16,12.8954 16,14L 16,14.1773L 14.3,12.4773C 14.899,11.0234 16.33,10 18,10 Z M 8,12C 8,12.5523 8.44771,13 9,13C 9.20753,13 9.40029,12.9368 9.56008,12.8286L 8.17144,11.4399C 8.06321,11.5997 8,11.7925 8,12 Z "/>
</svg>

<svg xmlns="http://www.w3.org/2000/svg" version="1.1" baseProfile="full" width="24" height="24" viewBox="0 0 24.00 24.00" xml:space="preserve"><path fill="#000" fill-opacity="1" stroke-width=".2" stroke-linejoin="round" d="M2 5.268L3.277 4 20 20.723 18.732 22l-2.74-2.74C15.858 21.348 14.122 23 12 23c-2.21 0-4-1.79-4-4v-1H7l-.84-8.182c-.345-.35-.627-.76-.826-1.216L2 5.268zM9 3c2.21 0 4 1.79 4 4H8.823l-2.74-2.738C6.814 3.485 7.85 3 9 3zm2.84 6.818l-.02.18L9.824 8h3.05c-.18.698-.542 1.322-1.034 1.818zM11 18h-1v1c0 1.105.895 2 2 2s2-.895 2-2v-1.732l-2.653-2.652L11 18zm7-8h2l-1 1 1 1h-2c-1.105 0-2 .895-2 2v.177l-1.7-1.7C14.9 11.023 16.33 10 18 10zM8 12c0 .552.448 1 1 1 .208 0 .4-.063.56-.17l-1.39-1.39c-.107.16-.17.353-.17.56z"/></svg>
